!!!OTL: Aue manus dextra Christi
**kern
*staff1
=1-
*clefF4
*k[]
2r
2A\
2G\
1C
2C/
1C
=2
2C/
1G
1E
1G
1A
2E\
1A
=3
2E\
2A\
2E\
2A\
=4
2G\
2G\
2F\
1G
!!linebreak:original
=5
2r
2C/
2G\
2A\
=6
1E
2E\
2A\
=7
2E\
2A\
2G\
2F\
=8
1G
2r
2C/
=9
2E\
2F\
1E
=10
0AA
==
*-
!!title: @{OTL}, @{GTL}, ed. @{ENC}
!!!pag:
!!!GTL: Hymnbook D
!!!EFL: 
!!!YEM: Creative Commons CC/BY/NC/SA 4.0
!!!ENC: Marcin Konik
!!!END: 2015-0m-dd
!!!EED: Marcin Konik
!!!EEV: 
!!!ONB: Encoded in vim by Marcin Konik
!!!CharacterEncoding: utf-8
!!!RDF**kern: l=long note in original notation
!!!RDF**kern: i=editorial accidental
!!muse2ps: z14jc180F
!!!COM: Anonim
!!!CDT: [?]
!!!TXO: Polish
!!!ODT: 
!!!GTL: Hymnbook D
!!!ARL: Opactwo św. Wojciecha, Staniątki 
!!!voices:	1
